Hatter-kde/places/symbolic/folder-gitlab-symbolic.svg

<svg xmlns="http://www.w3.org/2000/svg" width="16" height="16" version="1.1">
 <defs>
  <style id="current-color-scheme" type="text/css">
   .ColorScheme-Text { color:#363636; }
  </style>
 </defs>
 <path style="fill:currentColor" class="ColorScheme-Text" d="m 2.9905013,1.0009562 c -0.1221924,0 -0.2453697,0.065765 -0.2910003,0.1992052 L 0.92615958,6.0006147 H 5.0548432 L 3.2795478,1.2001614 C 3.2339002,1.0667204 3.1126928,1.0009562 2.9905013,1.0009562 Z M 5.0548432,6.0006147 7.9999966,15 10.945151,6.0006147 Z m 5.8903078,0 h 4.128684 L 13.300493,1.2001614 c -0.09126,-0.26688187 -0.488742,-0.26688187 -0.580047,0 z m 4.128684,0 L 7.9999966,15 15.747627,9.6527091 c 0.213791,-0.1474999 0.30429,-0.4096895 0.222644,-0.6483933 z M 7.9999966,15 0.92615958,6.0006147 0.02972286,9.0043158 c -0.0816456,0.2387038 0.0088995,0.5008934 0.22264401,0.6483933 z" />
</svg>

<?xml version="1.0" encoding="UTF-8"?>
<svg width="16" height="16" version="1.1" xmlns="http://www.w3.org/2000/svg">
 <defs>
  <style id="current-color-scheme" type="text/css">.ColorScheme-Text { color:#363636; }</style>
 </defs>
 <path class="ColorScheme-Text" d="m2.9905 1.001c-0.12219 0-0.24537 0.065765-0.291 0.19921l-1.7733 4.8005h4.1287l-1.7753-4.8005c-0.045648-0.13344-0.16686-0.19921-0.28905-0.19921zm2.0643 4.9997 2.9452 8.9994 2.9452-8.9994zm5.8903 0h4.1287l-1.7733-4.8005c-0.09126-0.26688-0.48874-0.26688-0.58005 0zm4.1287 0-7.0738 8.9994 7.7476-5.3473c0.21379-0.1475 0.30429-0.40969 0.22264-0.64839zm-7.0738 8.9994-7.0738-8.9994-0.89644 3.0037c-0.081646 0.2387 0.0088995 0.50089 0.22264 0.64839z" fill="currentColor"/>
</svg>
